sprites/actors/ghost_inky/inky_left_alternate.svg

<?xml version="1.0" encoding="UTF-8" standalone="no"?>
<!-- Created with Inkscape (http://www.inkscape.org/) -->

<svg
   width="100"
   height="100"
   viewBox="0 0 100 100"
   version="1.1"
   id="svg5"
   inkscape:version="1.2 (dc2aeda, 2022-05-15)"
   sodipodi:docname="inky_left_alternate.svg"
   xmlns:inkscape="http://www.inkscape.org/namespaces/inkscape"
   xmlns:sodipodi="http://sodipodi.sourceforge.net/DTD/sodipodi-0.dtd"
   xmlns="http://www.w3.org/2000/svg"
   xmlns:svg="http://www.w3.org/2000/svg">
  <sodipodi:namedview
     id="namedview7"
     pagecolor="#ffffff"
     bordercolor="#000000"
     borderopacity="0.25"
     inkscape:showpageshadow="2"
     inkscape:pageopacity="0.0"
     inkscape:pagecheckerboard="0"
     inkscape:deskcolor="#d1d1d1"
     inkscape:document-units="px"
     showgrid="true"
     inkscape:zoom="5.5731762"
     inkscape:cx="46.024025"
     inkscape:cy="55.354431"
     inkscape:window-width="1920"
     inkscape:window-height="1016"
     inkscape:window-x="0"
     inkscape:window-y="0"
     inkscape:window-maximized="1"
     inkscape:current-layer="layer1">
    <inkscape:grid
       type="xygrid"
       id="grid2865" />
  </sodipodi:namedview>
  <defs
     id="defs2">
    <inkscape:perspective
       sodipodi:type="inkscape:persp3d"
       inkscape:vp_x="0 : 50 : 1"
       inkscape:vp_y="0 : 1000 : 0"
       inkscape:vp_z="100 : 50 : 1"
       inkscape:persp3d-origin="50 : 33.333333 : 1"
       id="perspective5340" />
  </defs>
  <g
     inkscape:label="Layer 1"
     inkscape:groupmode="layer"
     id="layer1">
    <path
       id="path13817"
       style="fill:#1789f8;fill-opacity:1;stroke-width:10"
       d="m 88.15059,38.241912 c 1.767402,5.650724 1.513313,11.354806 1.515831,16.912134 0.0069,15.133555 2.336145,24.776064 -0.602871,33.38026 -0.492324,1.441316 -2.46148,5.864017 -4.382871,1.5638 -2.352881,-5.265926 0.76058,-16.126704 -2.776424,-17.113051 -2.973034,-0.829075 -8.854269,0.549313 -9.324111,3.018499 -1.023113,5.376824 -0.710711,11.141396 -2.582118,13.948822 -1.957218,2.936158 -6.397119,2.668724 -8.310468,0.990416 -2.506845,-2.198897 2.113125,-11.396712 0.772857,-15.741326 -1.124196,-3.644195 -9.416321,-3.921525 -10.998582,-0.950358 -0.47283,0.887879 -3.203567,11.303678 -5.827824,14.764598 -2.118493,2.793911 -2.869488,3.034449 -4.527312,-0.01058 C 38.659569,84.510343 40.000573,77.058937 37.658123,76.17092 34.524453,74.982954 34.913627,73.236232 27.579397,75.078435 24.413918,75.873536 24.642135,86.818843 22.81661,89.370053 21.955697,90.573197 13.050904,91.689587 10.989239,85.927659 9.9983419,83.158306 10.528036,56.442006 10.279775,53.627516 8.6674062,35.348351 19.89767,17.771464 38.127833,12.0641 46.669214,9.3900281 55.434158,9.7326425 63.274037,12.49111 74.743495,16.526648 84.233072,25.732745 88.146273,38.228118 L 50.05386,50.157593 Z"
       sodipodi:nodetypes="cssssssssssssssssssccc" />
    <path
       style="fill:#ffffff;fill-opacity:1;stroke-width:10"
       id="path14682-2-3"
       sodipodi:type="arc"
       sodipodi:cx="28.706141"
       sodipodi:cy="38.032341"
       sodipodi:rx="10.931968"
       sodipodi:ry="10.931968"
       sodipodi:start="5.9800505"
       sodipodi:end="5.9796884"
       sodipodi:arc-type="slice"
       d="M 39.13967,34.769001 A 10.931968,10.931968 0 0 1 31.970425,48.465575 10.931968,10.931968 0 0 1 18.273203,41.29757 10.931968,10.931968 0 0 1 25.439967,27.599699 10.931968,10.931968 0 0 1 39.138487,34.765223 L 28.706141,38.032341 Z" />
    <path
       style="fill:#0000ff;fill-opacity:1;stroke-width:10"
       id="path14684-0-1"
       sodipodi:type="arc"
       sodipodi:cx="26.361273"
       sodipodi:cy="39.805279"
       sodipodi:rx="7.4334154"
       sodipodi:ry="7.4334154"
       sodipodi:start="5.9800505"
       sodipodi:end="5.9796884"
       sodipodi:arc-type="slice"
       d="m 33.455765,37.586304 a 7.4334154,7.4334154 0 0 1 -4.874875,9.313266 7.4334154,7.4334154 0 0 1 -9.313707,-4.874032 7.4334154,7.4334154 0 0 1 4.873188,-9.314148 7.4334154,7.4334154 0 0 1 9.31459,4.872345 l -7.093688,2.221544 z" />
    <path
       style="fill:#ffffff;fill-opacity:1;stroke-width:10"
       id="path14682-2-3-9"
       sodipodi:type="arc"
       sodipodi:cx="55.364948"
       sodipodi:cy="38.088409"
       sodipodi:rx="10.931968"
       sodipodi:ry="10.931968"
       sodipodi:start="5.9800505"
       sodipodi:end="5.9796884"
       sodipodi:arc-type="slice"
       d="M 65.798477,34.825069 A 10.931968,10.931968 0 0 1 58.629233,48.521643 10.931968,10.931968 0 0 1 44.93201,41.353639 10.931968,10.931968 0 0 1 52.098774,27.655767 10.931968,10.931968 0 0 1 65.797295,34.821291 l -10.432347,3.267118 z" />
    <path
       style="fill:#0000ff;fill-opacity:1;stroke-width:10"
       id="path14684-0-1-4"
       sodipodi:type="arc"
       sodipodi:cx="53.020081"
       sodipodi:cy="39.861347"
       sodipodi:rx="7.4334154"
       sodipodi:ry="7.4334154"
       sodipodi:start="5.9800505"
       sodipodi:end="5.9796884"
       sodipodi:arc-type="slice"
       d="m 60.114572,37.642372 a 7.4334154,7.4334154 0 0 1 -4.874874,9.313266 7.4334154,7.4334154 0 0 1 -9.313707,-4.874031 7.4334154,7.4334154 0 0 1 4.873188,-9.314149 7.4334154,7.4334154 0 0 1 9.314589,4.872345 l -7.093687,2.221544 z" />
  </g>
</svg>

<svg width="100" height="100" xmlns="http://www.w3.org/2000/svg"><path d="M88.15 38.242c1.768 5.65 1.514 11.355 1.516 16.912.007 15.134 2.337 24.776-.602 33.38-.493 1.442-2.462 5.864-4.383 1.564-2.353-5.266.76-16.127-2.777-17.113-2.973-.829-8.854.55-9.324 3.019-1.023 5.376-.71 11.14-2.582 13.948-1.957 2.937-6.397 2.67-8.31.99-2.507-2.198 2.113-11.396.772-15.74-1.124-3.645-9.416-3.922-10.998-.95-.473.887-3.204 11.303-5.828 14.764-2.118 2.794-2.87 3.034-4.527-.01C38.66 84.51 40 77.058 37.658 76.17c-3.134-1.188-2.744-2.935-10.079-1.093-3.165.796-2.937 11.74-4.762 14.292-.861 1.203-9.766 2.32-11.828-3.442-.99-2.77-.461-29.486-.71-32.3-1.612-18.28 9.619-35.857 27.849-41.564a39.74 39.74 0 0 1 25.146.427c11.47 4.036 20.96 13.242 24.872 25.737l-38.092 11.93z" fill="#1789f8"/><path d="M39.14 34.769a10.932 10.932 0 0 1-7.17 13.697 10.932 10.932 0 0 1-13.697-7.168A10.932 10.932 0 0 1 25.44 27.6a10.932 10.932 0 0 1 13.698 7.165l-10.432 3.267z" fill="#fff"/><path d="M33.456 37.586A7.433 7.433 0 0 1 28.58 46.9a7.433 7.433 0 0 1-9.314-4.874 7.433 7.433 0 0 1 4.873-9.315 7.433 7.433 0 0 1 9.315 4.873l-7.094 2.221z" fill="#00f"/><path d="M65.798 34.825a10.932 10.932 0 0 1-7.169 13.697 10.932 10.932 0 0 1-13.697-7.168 10.932 10.932 0 0 1 7.167-13.698 10.932 10.932 0 0 1 13.698 7.165l-10.432 3.267z" fill="#fff"/><path d="M60.115 37.642a7.433 7.433 0 0 1-4.875 9.314 7.433 7.433 0 0 1-9.314-4.874 7.433 7.433 0 0 1 4.873-9.315 7.433 7.433 0 0 1 9.315 4.873L53.02 39.86z" fill="#00f"/></svg>
